X: 1
T: Jimmy Mo Mhle Str
M: 3/4
L: 1/8
R: waltz
K: Gmaj
BA|:G2>A2 B2|B g3 fe|d2 e2>B2|A4 G2|1G6|G4 BA:|2G6|G3 def||
|:g2 B2 c2|de2>e2f|g2 a2>f2|e2>d2 BA|B6|1B3 def:|2B4 BA||
G2>A2 B2|B g3 fe|d2 e2>B2|A4 G2|G6|G4 BA||
